img/image/index-video-play-button.svg

<svg width="67" height="67" viewBox="0 0 67 67" fill="none" xmlns="http://www.w3.org/2000/svg">
<circle cx="33.5" cy="35.5" r="18.5" fill="white"/>
<mask id="path-2-inside-1_194_1709" fill="white">
<path fill-rule="evenodd" clip-rule="evenodd" d="M33.5 67C52.0015 67 67 52.0015 67 33.5C67 14.9985 52.0015 0 33.5 0C14.9985 0 0 14.9985 0 33.5C0 52.0015 14.9985 67 33.5 67ZM47.3189 31.0015C49.1051 32.1884 49.1051 34.8118 47.3189 35.9988L29.3707 47.9253C27.3767 49.2503 24.7103 47.8207 24.7103 45.4267V21.5735C24.7103 19.1795 27.3767 17.7499 29.3707 19.0749L47.3189 31.0015Z"/>
</mask>
<g filter="url(#filter0_i_194_1709)">
<path fill-rule="evenodd" clip-rule="evenodd" d="M33.5 67C52.0015 67 67 52.0015 67 33.5C67 14.9985 52.0015 0 33.5 0C14.9985 0 0 14.9985 0 33.5C0 52.0015 14.9985 67 33.5 67ZM47.3189 31.0015C49.1051 32.1884 49.1051 34.8118 47.3189 35.9988L29.3707 47.9253C27.3767 49.2503 24.7103 47.8207 24.7103 45.4267V21.5735C24.7103 19.1795 27.3767 17.7499 29.3707 19.0749L47.3189 31.0015Z" fill="#DA4237"/>
</g>
<path d="M47.3189 35.9988L46.7655 35.1659L46.7655 35.1659L47.3189 35.9988ZM47.3189 31.0015L46.7655 31.8343L47.3189 31.0015ZM29.3707 47.9253L28.8172 47.0925L28.8172 47.0925L29.3707 47.9253ZM29.3707 19.0749L28.8172 19.9078L28.8172 19.9078L29.3707 19.0749ZM66 33.5C66 51.4493 51.4493 66 33.5 66V68C52.5538 68 68 52.5538 68 33.5H66ZM33.5 1C51.4493 1 66 15.5507 66 33.5H68C68 14.4462 52.5538 -1 33.5 -1V1ZM1 33.5C1 15.5507 15.5507 1 33.5 1V-1C14.4462 -1 -1 14.4462 -1 33.5H1ZM33.5 66C15.5507 66 1 51.4493 1 33.5H-1C-1 52.5538 14.4462 68 33.5 68V66ZM47.8724 36.8316C50.254 35.2491 50.254 31.7512 47.8724 30.1686L46.7655 31.8343C47.9563 32.6256 47.9563 34.3746 46.7655 35.1659L47.8724 36.8316ZM29.9241 48.7582L47.8724 36.8316L46.7655 35.1659L28.8172 47.0925L29.9241 48.7582ZM23.7103 45.4267C23.7103 48.6187 27.2655 50.5249 29.9241 48.7582L28.8172 47.0925C27.4879 47.9758 25.7103 47.0227 25.7103 45.4267H23.7103ZM23.7103 21.5735V45.4267H25.7103V21.5735H23.7103ZM29.9241 18.242C27.2655 16.4754 23.7103 18.3815 23.7103 21.5735H25.7103C25.7103 19.9775 27.4879 19.0245 28.8172 19.9078L29.9241 18.242ZM47.8724 30.1686L29.9241 18.242L28.8172 19.9078L46.7655 31.8343L47.8724 30.1686Z" fill="white" mask="url(#path-2-inside-1_194_1709)"/>
<defs>
<filter id="filter0_i_194_1709" x="0" y="0" width="67" height="67" filterUnits="userSpaceOnUse" color-interpolation-filters="sRGB">
<feFlood flood-opacity="0" result="BackgroundImageFix"/>
<feBlend mode="normal" in="SourceGraphic" in2="BackgroundImageFix" result="shape"/>
<feColorMatrix in="SourceAlpha" type="matrix" values="0 0 0 0 0 0 0 0 0 0 0 0 0 0 0 0 0 0 127 0" result="hardAlpha"/>
<feOffset/>
<feGaussianBlur stdDeviation="7.5"/>
<feComposite in2="hardAlpha" operator="arithmetic" k2="-1" k3="1"/>
<feColorMatrix type="matrix" values="0 0 0 0 0 0 0 0 0 0 0 0 0 0 0 0 0 0 0.1 0"/>
<feBlend mode="normal" in2="shape" result="effect1_innerShadow_194_1709"/>
</filter>
</defs>
</svg>

<svg width="67" height="67" fill="none" xmlns="http://www.w3.org/2000/svg"><circle cx="33.5" cy="35.5" r="18.5" fill="#fff"/><mask id="b" fill="#fff"><path fill-rule="evenodd" clip-rule="evenodd" d="M33.5 67C52.002 67 67 52.002 67 33.5 67 14.998 52.002 0 33.5 0 14.998 0 0 14.998 0 33.5 0 52.002 14.998 67 33.5 67Zm13.819-35.998c1.786 1.186 1.786 3.81 0 4.997L29.37 47.925c-1.994 1.325-4.66-.104-4.66-2.498V21.573c0-2.393 2.666-3.823 4.66-2.498l17.948 11.927Z"/></mask><g filter="url(#a)"><path fill-rule="evenodd" clip-rule="evenodd" d="M33.5 67C52.002 67 67 52.002 67 33.5 67 14.998 52.002 0 33.5 0 14.998 0 0 14.998 0 33.5 0 52.002 14.998 67 33.5 67Zm13.819-35.998c1.786 1.186 1.786 3.81 0 4.997L29.37 47.925c-1.994 1.325-4.66-.104-4.66-2.498V21.573c0-2.393 2.666-3.823 4.66-2.498l17.948 11.927Z" fill="#DA4237"/></g><path d="m47.319 35.999-.553-.833.553.833Zm0-4.998-.553.833.553-.832ZM29.37 47.925l-.554-.832.554.832Zm0-28.85-.554.833.554-.833ZM66 33.5C66 51.45 51.45 66 33.5 66v2C52.554 68 68 52.554 68 33.5h-2ZM33.5 1C51.45 1 66 15.55 66 33.5h2C68 14.446 52.554-1 33.5-1v2ZM1 33.5C1 15.55 15.55 1 33.5 1v-2C14.446-1-1 14.446-1 33.5h2ZM33.5 66C15.55 66 1 51.45 1 33.5h-2C-1 52.554 14.446 68 33.5 68v-2Zm14.372-29.168c2.382-1.583 2.382-5.08 0-6.663l-1.106 1.665a2 2 0 0 1 0 3.332l1.106 1.666ZM29.924 48.758l17.948-11.926-1.106-1.666-17.949 11.927 1.107 1.665Zm-6.214-3.331c0 3.192 3.555 5.098 6.214 3.331l-1.107-1.666c-1.33.884-3.107-.07-3.107-1.665h-2Zm0-23.854v23.854h2V21.573h-2Zm6.214-3.331c-2.659-1.767-6.214.14-6.214 3.331h2c0-1.596 1.778-2.549 3.107-1.665l1.107-1.666Zm17.948 11.927L29.924 18.242l-1.107 1.666 17.949 11.926 1.106-1.665Z" fill="#fff" mask="url(#b)"/><defs><filter id="a" x="0" y="0" width="67" height="67" filterUnits="userSpaceOnUse" color-interpolation-filters="sRGB"><feFlood flood-opacity="0" result="BackgroundImageFix"/><feBlend in="SourceGraphic" in2="BackgroundImageFix" result="shape"/><feColorMatrix in="SourceAlpha" values="0 0 0 0 0 0 0 0 0 0 0 0 0 0 0 0 0 0 127 0" result="hardAlpha"/><feOffset/><feGaussianBlur stdDeviation="7.5"/><feComposite in2="hardAlpha" operator="arithmetic" k2="-1" k3="1"/><feColorMatrix values="0 0 0 0 0 0 0 0 0 0 0 0 0 0 0 0 0 0 0.1 0"/><feBlend in2="shape" result="effect1_innerShadow_194_1709"/></filter></defs></svg>
